html/app/assets/img/ui/language.svg

<svg fill="none" height="20" viewBox="0 0 20 20" width="20" xmlns="http://www.w3.org/2000/svg"><path d="m6 7.5h4m-4 3.5h7m-3 8c4.9706 0 9-4.0294 9-9 0-4.97056-4.0294-9-9-9-4.97056 0-9 4.02944-9 9 0 1.1971.23374 2.3397.65806 3.3845.08121.2.12182.3.13994.3808.01772.079.0242.1375.02421.2186.00001.0828-.01503.173-.0451.3535l-.59298 3.5578c-.0621.3726-.09315.5589-.03537.6936.05057.1179.14452.2119.26242.2624.13471.0578.321.0268.69358-.0353l3.55789-.593c.18044-.0301.27065-.0451.35348-.0451.08102 0 .13953.0065.21859.0242.08082.0181.1808.0587.38077.1399 1.04481.4244 2.18737.6581 3.38451.6581z" stroke="#222" stroke-linecap="round" stroke-linejoin="round" stroke-width="2"/></svg>

<svg width="20" height="20" viewBox="0 0 20 20" fill="none" xmlns="http://www.w3.org/2000/svg">
<path d="M6 7.5H10M6 11H13M10 19C14.9706 19 19 14.9706 19 10C19 5.02944 14.9706 1 10 1C5.02944 1 1 5.02944 1 10C1 11.1971 1.23374 12.3397 1.65806 13.3845C1.73927 13.5845 1.77988 13.6845 1.798 13.7653C1.81572 13.8443 1.8222 13.9028 1.82221 13.9839C1.82222 14.0667 1.80718 14.1569 1.77711 14.3374L1.18413 17.8952C1.12203 18.2678 1.09098 18.4541 1.14876 18.5888C1.19933 18.7067 1.29328 18.8007 1.41118 18.8512C1.54589 18.909 1.73218 18.878 2.10476 18.8159L5.66265 18.2229C5.84309 18.1928 5.9333 18.1778 6.01613 18.1778C6.09715 18.1778 6.15566 18.1843 6.23472 18.202C6.31554 18.2201 6.41552 18.2607 6.61549 18.3419C7.6603 18.7663 8.80286 19 10 19Z" stroke="#222222" stroke-width="2" stroke-linecap="round" stroke-linejoin="round"/>
</svg>
